X:188
T:Star of the County Down
M:3/4
L:1/8
K:Em
B2 | E4 E2 | E3 D E2 | G4 G2 | A4 GA | B3 A G2 | E3 E3 | D6- | D2 G2 F2 | 
E4 E2 | E3 D E2 | G4 G2 | A4 GA | B3 A G2 | E4 E2 | E6- | E4 || 
B2 | d4 B2 | B3 A G2 | A4 A2 | A4 GA | B3 A G2 | E3 E3 | D6- | D2 G2 F2 | 
E4 E2 | E3 D E2 | G4 G2 | A4 GA | B3 A G2 | E4 E2 | E6- | E4 |] 

